packages/core/src/svgs/tokens/branded/DSLA.svg

<svg width="24" height="24" viewBox="0 0 24 24" fill="none" xmlns="http://www.w3.org/2000/svg">
<path d="M4.04437 6.42058L3.1843 7.89261C2.60384 8.89787 2.2271 10.0077 2.07559 11.1585C1.92409 12.3093 2.0008 13.4788 2.30132 14.6001C2.60186 15.7212 3.12031 16.7723 3.82712 17.693C4.53391 18.6139 5.41517 19.3865 6.42058 19.9667L7.89263 20.8157C8.89787 21.3961 10.0077 21.7729 11.1585 21.9244C12.3094 22.0759 13.4788 21.9992 14.6001 21.6987C15.7212 21.3981 16.7722 20.8796 17.6931 20.1729C18.6139 19.4661 19.3865 18.5848 19.9667 17.5794L20.8157 16.1074C21.3962 15.1022 21.773 13.9924 21.9244 12.8415C22.0759 11.6906 21.9992 10.5212 21.6987 9.39996C21.3981 8.27875 20.8797 7.22771 20.1729 6.30689C19.4661 5.38608 18.5848 4.61351 17.5795 4.03333L16.1074 3.18429C15.1022 2.60383 13.9924 2.2271 12.8415 2.0756C11.6906 1.9241 10.5212 2.00079 9.39997 2.30133C8.27875 2.60185 7.22771 3.12032 6.3069 3.82711C5.38607 4.5339 4.61352 5.41516 4.03334 6.42058H4.04437Z" fill="#FFE1A5"/>
<path d="M13.2567 2.68262H10.7537C9.6937 2.6819 8.64413 2.89021 7.66483 3.29565C6.68554 3.70108 5.79584 4.29568 5.04663 5.0454C4.29743 5.79512 3.70344 6.68523 3.29868 7.6648C2.8939 8.64436 2.68631 9.6942 2.68775 10.7541V13.2571C2.68775 17.7117 6.29343 21.3175 10.7482 21.3175H13.2512C17.7058 21.3175 21.3115 17.7117 21.3115 13.2571V10.7541C21.3115 6.29932 17.7058 2.69364 13.2512 2.69364L13.2567 2.68262Z" fill="#F69D88"/>
<path d="M12.0054 21.1301C14.4269 21.1301 16.7491 20.1681 18.4612 18.456C20.1735 16.7437 21.1355 14.4215 21.1355 12C21.1355 9.57872 20.1735 7.25641 18.4612 5.54421C16.7491 3.83202 14.4269 2.87012 12.0054 2.87012C9.58399 2.87012 7.26178 3.83202 5.54958 5.54421C3.83739 7.25641 2.87549 9.57872 2.87549 12C2.87549 14.4215 3.83739 16.7437 5.54958 18.456C7.26178 20.1681 9.58399 21.1301 12.0054 21.1301Z" fill="#2196F3"/>
<path d="M15.8645 5.38416L13.0528 10.1917L15.8149 11.8567L8.146 18.616L10.9247 13.7808L8.146 12.1655L15.8645 5.38416Z" fill="#F0F3FA"/>
</svg>

<svg xmlns="http://www.w3.org/2000/svg" width="24" height="24" fill="none" viewBox="0 0 24 24">
    <path fill="#FFE1A5" d="m4.044 6.42-.86 1.473a8.84 8.84 0 0 0 3.237 12.074l1.472.849a8.84 8.84 0 0 0 12.074-3.237l.849-1.472A8.835 8.835 0 0 0 17.58 4.033l-1.473-.849A8.837 8.837 0 0 0 4.033 6.421z"/>
    <path fill="#F69D88" d="M13.257 2.683h-2.503a8.06 8.06 0 0 0-8.066 8.071v2.503a8.057 8.057 0 0 0 8.06 8.06h2.503a8.057 8.057 0 0 0 8.06-8.06v-2.503a8.056 8.056 0 0 0-8.06-8.06z"/>
    <path fill="#2196F3" d="M12.005 21.13a9.13 9.13 0 1 0 0-18.26 9.13 9.13 0 0 0 0 18.26"/>
    <path fill="#F0F3FA" d="m15.865 5.384-2.812 4.808 2.762 1.665-7.669 6.759 2.779-4.835-2.779-1.616z"/>
</svg>
